src/lib/packages/icons/src/assets/filled/angle-right-circle.svg

<svg xmlns="http://www.w3.org/2000/svg" width="24" height="24" fill="none"><path fill="currentColor" d="M12 2C6.477 2 2 6.477 2 12s4.477 10 10 10 10-4.477 10-10S17.523 2 12 2Zm2.53 10.53-3 3a.748.748 0 0 1-1.06 0 .75.75 0 0 1 0-1.061l2.47-2.47-2.47-2.47a.75.75 0 0 1 1.061-1.061l3 3a.752.752 0 0 1-.001 1.062Z"/></svg>

<svg width="24" height="24" viewBox="0 0 24 24" fill="none" xmlns="http://www.w3.org/2000/svg">
<path d="M12 2C6.477 2 2 6.477 2 12C2 17.523 6.477 22 12 22C17.523 22 22 17.523 22 12C22 6.477 17.523 2 12 2ZM14.53 12.53L11.53 15.53C11.384 15.676 11.192 15.75 11 15.75C10.808 15.75 10.616 15.677 10.47 15.53C10.177 15.237 10.177 14.762 10.47 14.469L12.9399 11.999L10.47 9.52905C10.177 9.23605 10.177 8.76102 10.47 8.46802C10.763 8.17502 11.238 8.17502 11.531 8.46802L14.531 11.468C14.823 11.763 14.823 12.237 14.53 12.53Z" fill="currentColor"/>
</svg>
